!!!COM: Sinding, Christian
!!!CDT: 1856/01/11/-1941/12/03/
!!!OTL: Rustles of Spring
!!!OTL@DE: Fruhlingsrauschen
!!!OPR: 6 Pieces
!!!ODT: 1896
!!!OPS: Op. 32
!!!ONM: No. 3
!!!OMD: Agitato
!!!CNT@EN: Norwegian
**kern	**kern	**dynam
*staff2	*staff1	*staff1
*Ipiano	*Ipiano	*Ipiano
*clefG2	*clefG2	*clefG2
*k[b-e-a-d-g-]	*k[b-e-a-d-g-]	*k[b-e-a-d-g-]
*M2/4	*M2/4	*M2/4
*MM100	*MM100	*MM100
=1-	=1-	=1-
4b-\	32r	.
.	(32b-\LLL	pp
.	32dd-\	.
.	32ff\	.
.	32bb-\	.
.	32ff\	.
.	32dd-\	.
.	32b-\JJJ)	.
8..f/L	32r	.
.	32b-\LLL	.
.	32dd-\	.
.	32ff\	.
.	32bb-\	.
.	32ff\	.
.	32dd-\JJJ	.
32b-/Jkk	32r	.
=2	=2	=2
4a-/	32r	.
.	(32a-\LLL	.
.	32dd-\	.
.	32ff\	.
.	32aa-\	.
.	32ff\	.
.	32dd-\	.
.	32a-\JJJ)	.
8..d-/L	32r	.
.	32a-\LLL	.
.	32dd-\	.
.	32ff\	.
.	32aa-\	.
.	32ff\	.
.	32dd-\	.
32e-/Jkk	32a-\JJJ	.
=3	=3	=3
4f/	16r	.
.	32a-\LLL	.
.	32dd-\	.
.	32ff\	.
.	32aa-\	.
.	32ff\	.
.	32dd-\	.
4a-/	32a-\JJJ	.
.	32a-\LLL	.
.	32dd-\	.
.	32ff\	.
.	32aa-\	.
.	32ff\	.
.	32dd-\	.
.	32a-\JJJ	.
*clefF4	*	*
=4	=4	=4
(8DD-/L	32r	.
.	32a-\LLL	.
.	32dd-\	.
.	32ff\	.
16AA-/L	32aa-\	.
.	32ff\	.
16D-/JJ	32dd-\	.
.	32a-\JJJ	.
16F\LL	32r	.
.	32a-\LLL	.
16A-\	32dd-\	.
.	32ff\	.
16d-\	32aa-\	.
.	32ff\	.
16f\JJ	32dd-\	.
.	32a-\JJJ	.
*clefG2	*	*
=5	=5	=5
4b-\)	32r	.
.	32b-\LLL	.
.	32dd-\	.
.	32ff\	.
.	32bb-\	.
.	32ff\	.
.	32dd-\	.
.	32b-\JJJ	.
8..f/L	32r	.
.	32b-\LLL	.
.	32dd-\	.
.	32ff\	.
.	32bb-\	.
.	32ff\	.
.	32dd-\JJJ	.
32b-/Jkk	32r	.
=6	=6	=6
4a-/	32r	.
.	32a-\LLL	.
.	32dd-\	.
.	32ff\	.
.	32aa-\	.
.	32ff\	.
.	32dd-\	.
.	32a-\JJJ	.
8..d-/L	32r	.
.	32a-\LLL	.
.	32dd-\	.
.	32ff\	.
.	32aa-\	.
.	32ff\	.
.	32dd-\	.
32e-/Jkk	32a-\JJJ	.
=7	=7	=7
4f/	32r	.
.	32a-\LLL	.
.	32cc\	.
.	32ff\	.
.	32aa-\	.
.	32ff\	.
.	32cc\	.
.	32a-\JJJ	.
4a-/	32r	.
.	32a-\LLL	.
.	32cc\	.
.	32ff\	.
.	32aa-\	.
.	32ff\	.
.	32cc\	.
.	32a-\JJJ	.
*clefF4	*	*
=8	=8	=8
(8FF/L	32r	.
.	32a-\LLL	.
.	32cc\	.
.	32ff\	.
16C/L	32aa-\	.
.	32ff\	.
16F/JJ	32cc\	.
.	32a-\JJJ	.
16A-\LL	32r	.
.	32cc\LLL	.
16c\	32ff\	.
.	32aa-\	.
*clefG2	*	*
16f\	32ccc\	.
.	32aa-\	.
16a-\JJ	32ff\	.
.	32cc\JJJ	.
=9	=9	=9
4cc\)	32r	.
.	32cc\LLL	.
.	32ff\	.
.	32aa-\	.
.	32ccc\	.
.	32aa-\	.
.	32ff\	.
.	32cc\JJJ	.
8..a-/L	32r	.
.	32cc\LLL	.
.	32ff\	.
.	32aa-\	.
.	32ccc\	.
.	32aa-\	.
.	32ff\	.
32b-/Jkk	32cc\JJJ	.
=10	=10	=10
4cc\	32r	.
.	32cc\LLL	.
.	32een\	.
.	32aa-\	.
.	32ccc\	.
.	32aa-\	.
.	32ee\	.
.	32cc\JJJ	.
(28c/LLL	32r	.
.	32cc\LLL	.
28dn/	.	.
.	32ee\	.
28en/	.	.
.	32aa-\	.
28f/	.	.
.	32ccc\	.
28gn/	.	.
.	32aa-\	.
28a-/	.	.
.	32ee\	.
28b-/JJJ	.	.
.	32cc\JJJ	.
=11	=11	=11
4cc\)	32r	.
.	32cc\LLL	.
.	32ff\	.
.	32aa-\	.
.	32ccc\	.
.	32aa-\	.
.	32ff\	.
.	32cc\JJJ	.
8..a-/L	32r	.
.	32cc\LLL	.
.	32ff\	.
.	32aa-\	.
.	32ccc\	.
.	32aa-\	.
.	32ff\	.
32b-/Jkk	32cc\JJJ	.
=12	=12	=12
*k[b-e-a-d-g-]	*k[b-e-a-d-g-]	*k[b-e-a-d-g-]
4cc\	32r	.
.	32cc\LLL	.
.	32een\	.
.	32aa-\	.
.	32ccc\	.
.	32aa-\	.
.	32ee\	.
.	32cc\JJJ	.
(28c/LLL	32r	.
.	32cc\LLL	.
28dn/	.	.
.	32ee\	.
28en/	.	.
.	32aa-\	.
28f/	.	.
.	32ccc\	.
28gn/	.	.
.	32aa-\	.
28a-/	.	.
.	32ee\	.
28b-/JJJ	.	.
.	32cc\JJJ	.
=13	=13	=13
4cc\)	32r	.
.	32cc\LLL	.
.	32ff\	.
.	32aa-\	.
.	32ccc\	.
.	32aa-\	.
.	32ff\	.
.	32cc\JJJ	.
8..b-/L	32r	.
.	32cc\LLL	.
.	32ff\	.
.	32aa-\	.
.	32ccc\	.
.	&(32aa-\&)	.
.	32ff\	.
32a-/Jkk	32cc\JJJ	.
=14	=14	=14
4ee-\	32r	.
.	32ee-\LLL	.
.	32aa-\	.
.	32ccc\	.
.	32eee-\	.
.	32ccc\	.
.	32aa-\	.
.	32ee-\JJJ	.
4e-/	32r	.
.	32ee-\LLL	.
.	32ggn\	.
.	32bb-\	.
.	32eee-\	.
.	32bb-\	.
.	32gg\	.
.	32ee-\JJJ	.
=15	=15	=15
8..a-/L	32r	.
.	32ee-\LLL	.
.	32aa-\	.
.	32ccc\	.
.	32eee-\	.
.	32ccc\	.
.	32aa-\	.
32e-/Jkk	32ee-\JJJ	.
8..f/L	32r	.
.	32cc\LLL	.
.	32ff\	.
.	32aa-\	.
.	32ccc\	.
.	32aa-\	.
.	32ff\	.
32c/Jkk	32cc\JJJ	.
=16	=16	=16
8..e-\L	32r	.
.	32a-\LLL	.
.	32cc\	.
.	32ee-\	.
.	32aa-\	.
.	32ee-\	.
.	32cc\	.
*clefF4	*	*
32A-\Jkk	32a-\JJJ	.
8..c\L	32r	.
.	32en/LLL	.
.	32b-/	.
.	32cc/	.
.	32een/	.
.	32cc/	.
.	32b-/	.
(32E-\Jkk	32e/JJJ	.
=17	=17	=17
4F\	32r	p
.	32c/LLL	.
.	32f/	.
.	32a-/	.
.	32cc/	.
.	32a-/	.
.	32f/	.
.	32c/JJJ	.
8..Gn\L	32r	.
.	32c/LLL	.
.	32f/	.
.	32a-/	.
.	32cc/	.
.	32a-/	.
.	32f/	.
32A-\Jkk	32c/JJJ	.
=18	=18	=18
4c\)	32r	.
.	32c/LLL	.
.	32f/	.
.	32a-/	.
.	32cc/	.
.	32a-/	.
.	32f/	.
.	32c/JJJ	.
([8F\L	32r	.
.	32c/LLL	.
.	32f/	.
.	32a-/	.
32F\LL]	32cc/	.
32Gn\	32a-/	.
32A-\	32f/	.
32B-\JJJ	32c/JJJ	.
=19	=19	=19
8.c-^\L)	32r	.
.	32dn/LLL	.
.	32f/	.
.	32a-/	.
.	32ddn/	.
.	32a-/	.
32B-\LL	32f/	.
(32A-\JJJ	32d/JJJ	.
[4f^\	32r	.
.	32d/LLL	.
.	32a-/	.
.	32bn/	.
.	32dd/	.
.	32b/	.
.	32a-/	.
.	32d/JJJ	.
=20	=20	=20
4f\]	32r	.
.	32dn/LLL	.
.	32a-/	.
.	32b-/	.
.	32ddn/	.
.	32b-/	.
.	32a-/	.
.	32d/JJJ	.
4f#\)	32r	.
.	32d/LLL	.
.	32an/	.
.	32cc/	.
.	32dd/	.
.	32cc/	.
.	32a/	.
.	32d/JJJ	.
=21	=21	=21
(4Gn\	32r	.
.	32dn/LLL	p
.	32gn/	.
.	32b-/	.
.	32ddn/	.
.	32b-/	.
.	32g/	.
.	32d/JJJ	.
8..An\L	32r	.
.	32d/LLL	.
.	32g/	.
.	32b-/	.
.	32dd/	.
.	32b-/	.
.	32g/	.
32B-\Jkk	32d/JJJ	.
=22	=22	=22
4dn\)	32r	.
.	32dn/LLL	.
.	32gn/	.
.	32b-/	.
.	32ddn/	.
.	32b-/	.
.	32g/	.
.	32d/JJJ	.
([8Gn\L	32r	.
.	32d/LLL	.
.	32g/	.
.	32b-/	.
32G\LL]	32dd/	.
32A-\	32b-/	.
32B-\	32g/	.
32c\JJJ	32d/JJJ	.
=23	=23	=23
(8.d-\L)	32r	.
.	32en/LLL	.
.	32gn/	.
.	32b-/	.
.	32een/	.
.	32b-/	.
32c\LL	32g/	.
32B-\JJJ)	32e/JJJ	.
[4gn\	32r	.
.	32e/LLL	.
.	32b-/	.
.	32cc#/	.
.	32ee/	.
.	32cc#/	.
.	32b-/	.
.	32e/JJJ	.
=24	=24	=24
(4gn\]	32r	.
.	32en/LLL	.
.	32b-/	.
.	32cc#/	.
.	32een/	.
.	32cc#/	.
.	32b-/	.
.	32e/JJJ	.
4g#\)	32r	.
.	32e/LLL	.
.	32bn/	.
.	32ddn/	.
.	32ee/	.
.	32dd/	.
.	32b/	.
.	32e/JJJ	.
=25	=25	=25
(4An\	32r	.
.	32en/LLL	.
.	32an/	.
.	32cc#/	.
.	32een/	.
.	32cc#/	.
.	32a/	.
.	32e/JJJ	.
8..Bn\L	32r	.
.	32e/LLL	.
.	32a/	.
.	32cc#/	.
.	32ee/	.
.	32cc#/	.
.	32a/	.
32c#\Jkk	32e/JJJ	.
=26	=26	=26
4en\)	32r	.
.	32en/LLL	.
.	32an/	.
.	32cc#/	.
.	32een/	.
.	32cc#/	.
.	32a/	.
.	32e/JJJ	.
4An\	32r	.
.	32e/LLL	.
.	32a/	.
.	32cc#/	.
.	32ff/	.
.	32cc#/	.
.	32a/	.
.	32e/JJJ	.
=27	=27	=27
4fn'\	32r	.
.	32fn\LLL	.
.	32a-\	.
.	32dd-\	.
.	32ffn\	.
.	32dd-\	.
.	32a-\	.
.	32f\JJJ	.
4e-'\	32r	.
.	32f\LLL	.
.	32a-\	.
.	32dd-\	.
.	32ff\	.
.	32dd-\	.
.	32a-\	.
.	32f\JJJ	.
=28	=28	=28
4d-\	32r	.
.	32f\LLL	.
.	32a-\	.
.	32dd-\	.
.	32ff\	.
.	32dd-\	.
.	32a-\	.
.	32f\JJJ	.
(8..c\L	32r	.
.	32f\LLL	.
.	32a-\	.
.	32dd-\	.
.	32ff\	.
.	32dd-\	.
.	32a-\	.
32B-\Jkk	32f\JJJ	.
=29	=29	=29
4AA-'\ 4A-'\)	32r	.
.	32g-\LLL	f
.	32cc\	.
.	32ee-\	.
.	32aa-\	.
.	32ee-\	.
.	32cc\	.
.	32g-\JJJ	.
4GGn'/ 4Gn'/	32r	.
.	32g-\LLL	.
.	32cc\	.
.	32ee-\	.
.	32aa-\	.
.	32ee-\	.
.	32cc\	.
.	32g-\JJJ	.
=30	=30	=30
4GG-'/ 4G-'/	32r	.
.	32g-\LLL	.
.	32cc\	.
.	32ee-\	.
.	32aa-\	.
.	32ee-\	.
.	32cc\	.
.	32g-\JJJ	.
(8..FF/ 8..F/L	32r	.
.	32g-\LLL	.
.	32cc\	.
.	32ee-\	.
.	32aa-\	.
.	32ee-\	.
.	32cc\	.
32EE-/) 32E-/Jkk	32g-\JJJ	.
=31	=31	=31
(20DD-/LL	4b-\ 4dd-\ 4ff\ (4bb-\	ff
20AA-/	.	.
20D-/	.	.
20F/	.	.
20B-/JJ)	.	.
4r	8.F/ 8.d-/ 8.f/L	.
.	16B-/ 16b-/Jk)	.
=32	=32	=32
(20FF/LL	4A-/ 4d-/ 4f/ (4a-/	.
20AA-/	.	.
20D-/	.	.
20F/	.	.
20A-/JJ)	.	.
4r	8.D-/ 8.d-/L	.
.	16E-/ 16e-/Jk)	.
=33	=33	=33
16AAA-/LL	4F/ 4c/ (4f/	.
16AA-/	.	.
16A-/	.	.
16Gn/JJ	.	.
16G-\LL	[4A-/ [4c/ [4f/ [4a-/)	.
16F\	.	.
16E#\	.	.
16E-\JJ	.	.
=34	=34	=34
16Dn/LL	4A-/] 4c/] 4f/] 4a-/]	.
16D-/	.	.
16C/	.	.
16C-/JJ	.	.
16BB-/LL	4G-/ 4cn/ 4en/	.
16AA-/	.	.
16GGn/	.	.
16AA-/JJ	.	.
=35	=35	=35
(20DD-/LL	4B-/ 4d-/ 4f/ (4b-/	.
20AA-/	.	.
20D-/	.	.
20F/)	.	.
20B-/JJ	.	.
4r	8.D-/ 8.d-/	.
.	16B-/ 16b-/)	.
=36	=36	=36
(20BBB-/LL	4A-/ 4d-/ 4f/ (4a-/	.
20BB-/	.	.
20D-/	.	.
20F/	.	.
20A-/JJ)	.	.
4r	8.D-/ 8.d-/	.
.	16E-/ 16e-/)	.
=37	=37	=37
(16DD-/LL	4F/ 4c-/ (4f/	.
16AA-/	.	.
16D-/	.	.
16F/JJ	.	.
16A-\LL	[4c-/ [4e-/ [4a-/)	.
16G-\	.	.
16F\	.	.
16E-\JJ	.	.
=38	=38	=38
16D-/LL	2c-/] 2e-/] 2a-/]	.
16C-/	.	.
16BB-/	.	.
16AA-/JJ	.	.
16GG-/LL	.	.
16FF/	.	.
16EE-/	.	.
16DD-/JJ)	.	.
=39	=39	=39
(20AAn/LL	4cn/ 4a-/ (4cc/	.
20Cn/	.	.
20F/	.	.
20A-/	.	.
20cn/JJ)	.	.
4r	8.A-/ 8.f/ 8.a-/L	.
.	16B-/ 16b-/Jk)	.
=40	=40	=40
28C\LL	4c/ 4en/ 4a-/ 4cc/	.
28Dn\	.	.
28En\	.	.
28F\	.	.
28Gn\	.	.
28A-\	.	.
28B-\JJ	.	.
4r	28c/LL	.
.	28dn/	.
.	28en/	.
.	28f/	.
.	28gn/	.
.	28a-/	.
.	28b-/JJ	.
=41	=41	=41
(20FF\LL	4c/ 4a-/ (4cc/	.
20C\	.	.
20F\	.	.
20A-\	.	.
20c\JJ)	.	.
4r	8.A-/ 8.f/ 8.a-/L	.
.	16B-/ 16b-/Jk)	.
=42	=42	=42
28C\LL	4c/ 4en/ 4a-/ 4cc/	.
28Dn\	.	.
28En\	.	.
28F\	.	.
28Gn\	.	.
28A-\	.	.
28B-\JJ	.	.
4r	28c/LL	.
.	28dn/	.
.	28en/	.
.	28f/	.
.	28gn/	.
.	28a-/	.
.	28b-/JJ	.
=43	=43	=43
20FF\LL	4c/ 4a-/ 4cc/	.
20C\	.	.
20F\	.	.
20A-\	.	.
20c\JJ	.	.
4r	8.f/ 8.a-/L	.
.	16a-/ 16cc/Jk	.
=44	=44	=44
(24EE-\LL	4e-'/ 4gn'/ 4b-'/ 4ee-'/	.
24BB-\	.	.
24E-\	.	.
24Gn\	.	.
24B-\	.	.
(24d-\JJ)	.	.
24r	4e-'/	.
24d-\LL	.	.
24B-\	.	.
24G\	.	.
24E-\	.	.
24BB-\JJ	.	.
=45	=45	=45
24AA-/LL)	4a-/	f
24E-/	.	.
24A-/	.	.
24c/	.	.
24e-/	.	.
24a-/JJ	.	.
4r	24cc/LL	.
.	24b-/	.
.	24a-/	.
.	24f/	.
.	24e-/	.
.	24f/JJ	.
*	*clefF4	*clefF4
=46	=46	=46
4r	24e-\LL	.
.	24c\	.
.	24A-\	.
.	24B-\	.
.	24A-\	.
.	24F\JJ	.
8r	24E-\LL	.
.	24F\	.
.	24E-\JJ	.
24C/LL	8r	.
24AA-/	.	.
24GGn/JJ	.	.
*	*clefG2	*clefG2
=47	=47	=47
24FF\LL	4f\ 4a-\ 4cc\ (4ff\	.
24C\	.	.
24F\	.	.
24A-\	.	.
24c\	.	.
24f\JJ	.	.
24r	8.gn\ 8.cc\ 8.ggn\L	.
24f\LL	.	.
24c\	.	.
24A-\	.	.
24F\	.	.
.	16a-\ 16aa-\Jk	.
&(24C\JJ&)	.	.
=48	=48	=48
(24FF\LL	4cc\ 4ff\ 4aa-\ 4ccc\)	.
24C\	.	.
24F\	.	.
24Gn\	.	.
24A-\	.	.
24c\JJ)	.	.
24r	8f\ (8ff\L	.
(24c\LL	.	.
24E-\	.	.
24F\	24gn\L	.
24C\	24a-\	.
24FF\JJ)	24b-\JJ)	.
=49	=49	=49
8F\ 8A-\ 8c-\	(8.e-/ 8.a-/ 8.cc-/L	.
8r	.	.
.	32b-/LL	.
.	32a-/JJJ)	.
24E-/LL	[4ff/	.
24A-/	.	.
24c-/	.	.
24e-/	.	.
24f/	.	.
24a-/JJ	.	.
=50	=50	=50
*	*^	*
8r	(4ff/]	24cc-\LL	.
.	.	24a-\	.
.	.	24f\JJ	.
24e-/LL	.	8r	.
24c-/	.	.	.
24A-/JJ	.	.	.
24Dn/LL	4ff#/)	8r	.
24An/	.	.	.
24c-/JJ	.	.	.
8r	.	24d-\LL	.
.	.	24f#\	.
.	.	24ddn\JJ	.
*	*v	*v	*
=51	=51	=51
24GG-\LL	4gn\ 4b-\ 4ddn\ (4ggn\	.
24Dn\	.	.
24Gn\	.	.
24B-\	.	.
24dn\	.	.
&(24g-\JJ&)	.	.
24r	8.an\ 8.dd\ 8.aan\L	.
24g-\LL	.	.
24d\	.	.
24B-\	.	.
24G\	.	.
.	16b-\ 16bb-\Jk	.
&(24D\JJ&)	.	.
=52	=52	=52
24GGn\LL	4ddn\ 4ggn\ 4bb-\ 4dddn\)	.
24Dn\	.	.
24Gn\	.	.
24An\	.	.
24B-\	.	.
24dn\JJ	.	.
24r	8gn\ (8ggn\L	.
(24d\LL	.	.
24B-\	.	.
24G\	24an\L	.
24D\	24b-\	.
24BB-\JJ)	24cc\JJ)	.
=53	=53	=53
*	*^	*
8Gn\ 8B-\ 8d-\	(8.f/ 8.b-/ 8.dd-/L	4r	.
8r	.	.	.
.	32cc/LL	.	.
.	32b-/JJJ)	.	.
24F/LL	([4ggn^/	8r	.
24B-/	.	.	.
24d-/JJ	.	.	.
8r	.	24f\LL	.
.	.	24gn\	.
.	.	24b-\JJ	.
=54	=54	=54	=54
4r	4gg/]	28dd-\LL	.
.	.	28b-\	.
.	.	28gn\	.
.	.	28f\	.
.	.	28d-\	.
.	.	28B-\	.
.	.	28F\JJ	.
4r	4gg#/)	24En\LL	.
.	.	24Bn\	.
.	.	24dn\	.
.	.	24en\	.
.	.	24g#\	.
.	.	24een\JJ	.
*	*v	*v	*
=55	=55	=55
*k[b-e-a-d-g-]	*k[b-e-a-d-g-]	*k[b-e-a-d-g-]
(24AAn\LL	4an\ 4cc#\ 4een\ (4aan\	.
24En\	.	.
24An\	.	.
24c#\	.	.
24en\	.	.
24an\JJ	.	.
24r	8.bn\ 8.ee\ 8.bbn\L	.
24a\LL	.	.
24e\	.	.
24c#\	.	.
24A\	.	.
.	16cc#\ 16ccc#\Jk)	.
24E\JJ)	.	.
=56	=56	=56
(24GGn\LL	4een\ 4aan\ 4ccc#\ 4eeen\	.
24C#\	.	.
24En\	.	.
24An\	.	.
24c#\	.	.
24en\JJ	.	.
24r	4an\ 4aan\	.
24e\LL	.	.
24c#\	.	.
24A\	.	.
24E\	.	.
24GG\JJ)	.	.
=57	=57	=57
(24AA-/LL	4ffn\ 4aa-\ 4ddd-\ 4fffn\	ff
24AAn/	.	.
24BB-/	.	.
24BBn/	.	.
24C/	.	.
24D-/JJ	.	.
24Dn\LL	4ee-\ 4ff\ 4aa-\ 4eee-\	.
24E-\	.	.
24En\	.	.
24F\	.	.
24F#\	.	.
24Gn\JJ	.	.
=58	=58	=58
24A-/LL	4dd-\ 4ff\ 4aa-\ 4ddd-\	.
24An/	.	.
24B-/	.	.
24Bn/	.	.
*clefG2	*	*
24c/	.	.
24d-/JJ	.	.
24dn/LL	8.cc\ 8.ff\ 8.aa-\ 8.ccc\L	.
24e-/	.	.
24en/	.	.
24f/	.	.
24g-/	.	.
.	16b-\ 16bb-\Jk	.
24gn/JJ	.	.
=59	=59	=59
4a-/)	24aa-\LL	.
.	24an\	.
.	24b-\	.
.	24bn\	.
.	24cc\	.
.	24dd-\JJ	.
4Gn/ 4A-/ 4gn/	24ddn\LL	.
.	24ee-\	.
.	24een\	.
.	24ff\	.
.	24gg-\	.
.	24ggn\JJ	.
=60	=60	=60
4G-/ 4A-/ 4g-/	24aa-\LL	.
.	24ddn\	.
.	24ee-\	.
.	24een\	.
.	24ff\	.
.	24gg-\JJ	.
*clefF4	*	*
8.F\ 8.A-\ 8.f\L	24ggn\LL	.
.	24aa-\	.
.	24aan\	.
.	24bb-\	.
.	24bbn\	.
16E-\ 16e-\Jk	.	.
.	24ccc\JJ	.
=61	=61	=61
*	*^	*
24DD-/LL	4bb-/ (4ddd-/	4r	.
24AA-/	.	.	.
24D-/	.	.	.
24F/	.	.	.
24A-/	.	.	.
24d-/JJ	.	.	.
4r	8.ff/L	24f\LL	.
.	.	24a-\	.
.	.	24dd-\	.
.	.	24a-\	.
.	.	24f\	.
.	16bb-/Jk)	.	.
.	.	24d-\JJ	.
=62	=62	=62	=62
24A-/LL	(4aa-/	4r	.
24F/	.	.	.
24D-/	.	.	.
24AA-/	.	.	.
24DD-/	.	.	.
24AA-/JJ	.	.	.
24D-/LL	8.dd-/L	8r	.
24F/	.	.	.
24A-/JJ	.	.	.
8r	.	24d-\LL	.
.	.	24f\	.
.	16ee-/Jk	.	.
.	.	24a-\JJ	.
=63	=63	=63	=63
8r	(4ff/)	24dd-\LL	.
.	.	24a-\	.
.	.	24f\JJ	.
24d-/LL	.	8r	.
24A-/	.	.	.
24F/JJ	.	.	.
24D-/LL	[4aa-/)	4r	.
24AA-/	.	.	.
24DD-/	.	.	.
24AA-/	.	.	.
24D-/	.	.	.
24F/JJ	.	.	.
*	*v	*v	*
=64	=64	=64
24A-\LL	4aa-/]	.
24F\	.	.
24D-\	.	.
24F\	.	.
24A-\	.	.
24d-\JJ	.	.
24f\LL	4r	.
24d-\	.	.
24A-\	.	.
24d-\	.	.
24f\	.	.
24a-\JJ	.	.
*clefG2	*	*
=65	=65	=65
&(4b-\&)	32r	.
.	32b-\LLL	pp
.	32dd-\	.
.	32ff\	.
.	32bb-\	.
.	32ff\	.
.	32dd-\	.
.	32b-\JJJ	.
8..f/L	32r	.
.	32b-\LLL	.
.	32dd-\	.
.	32ff\	.
.	32bb-\	.
.	32ff\	.
.	32dd-\JJJ	.
32b-/Jkk	32r	.
=66	=66	=66
4a-/	32r	.
.	32a-\LLL	.
.	32dd-\	.
.	32ff\	.
.	32aa-\	.
.	32ff\	.
.	32dd-\	.
.	32a-\JJJ	.
8..d-/L	32r	.
.	32a-\LLL	.
.	32dd-\	.
.	32ff\	.
.	32aa-\	.
.	32ff\	.
.	32dd-\	.
32e-/ 32b-/Jkk	32a-\JJJ	.
=67	=67	=67
4f/	32r	.
.	32a-\LLL	.
.	32cc\	.
.	32ff\	.
.	32aa-\	.
.	32ff\	.
.	32cc\	.
.	32a-\JJJ	.
4a-/	32r	.
.	32cc\LLL	.
.	32ff\	.
.	32aa-\	.
.	32ccc\	.
.	32aa-\	.
.	32ff\	.
.	32cc\JJJ	.
*clefF4	*	*
=68	=68	=68
(8FF/L	32r	.
.	32cc\LLL	.
.	32ff\	.
.	32aa-\	.
16C/L	32ccc\	.
.	32aa-\	.
16F/JJ	32ff\	.
.	32cc\JJJ	.
16A-\LL	32r	.
.	32cc\LLL	.
16c\	32ff\	.
.	32aa-\	.
*clefG2	*	*
16f\	32ccc\	.
.	32aa-\	.
16a-\JJ	32ff\	.
.	32cc\JJJ	.
=69	=69	=69
4cc\)	32r	.
.	32cc\LLL	.
.	32ff\	.
.	32aa-\	.
.	32ccc\	.
.	32aa-\	.
.	32ff\	.
.	32cc\JJJ	.
8..a-/L	32r	.
.	32cc\LLL	.
.	32ff\	.
.	32aa-\	.
.	32ccc\	.
.	32aa-\	.
.	32ff\	.
32b-/Jkk	32cc\JJJ	.
=70	=70	=70
4cc\	32r	.
.	32cc\LLL	.
.	32een\	.
.	32aa-\	.
.	32ccc\	.
.	32aa-\	.
.	32ee\	.
.	32cc\JJJ	.
(28c/LL	32r	.
.	32cc\LLL	.
28dn/	.	.
.	32ee\	.
28en/	.	.
.	32aa-\	.
28f/	.	.
.	32ccc\	.
28gn/	.	.
.	32aa-\	.
28a-/	.	.
.	32ee\	.
28b-/JJ	.	.
.	32cc\JJJ	.
=71	=71	=71
4cc\)	32r	.
.	32cc\LLL	.
.	32ff\	.
.	32aa-\	.
.	32ccc\	.
.	32aa-\	.
.	32ff\	.
.	32cc\JJJ	.
8..a-/L	32r	.
.	32cc\LLL	.
.	32ff\	.
.	32aa-\	.
.	32ccc\	.
.	32aa-\	.
.	32ff\	.
32b-/Jkk	32cc\JJJ	.
=72	=72	=72
4cc\	32r	.
.	32cc\LLL	.
.	32een\	.
.	32aa-\	.
.	32ccc\	.
.	32aa-\	.
.	32ee\	.
.	32cc\JJJ	.
(28c/LLL	32r	.
.	32cc\LLL	.
28dn/	.	.
.	32ee\	.
28en/	.	.
.	32aa-\	.
28f/	.	.
.	32ccc\	.
28gn/	.	.
.	32aa-\	.
28a-/	.	.
.	32ee\	.
28b-/JJJ	.	.
.	32cc\JJJ	.
=73	=73	=73
4cc\)	32r	.
.	32cc\LLL	.
.	32ff\	.
.	32aa-\	.
.	32ccc\	.
.	32aa-\	.
.	32ff\	.
.	32cc\JJJ	.
8..b-/L	32r	.
.	32cc\LLL	.
.	32ff\	.
.	32aa-\	.
.	32ccc\	.
.	32aa-\	.
.	32ff\	.
32a-/Jkk	32cc\JJJ	.
=74	=74	=74
4ee-\	32r	.
.	32ee-\LLL	.
.	32aa-\	.
.	32ccc\	.
.	32eee-\	.
.	32ccc\	.
.	32aa-\	.
.	32ee-\JJJ	.
4e-/	32r	.
.	32ee-\LLL	.
.	32ggn\	.
.	32bb-\	.
.	32eee-\	.
.	32bb-\	.
.	32gg\	.
.	32ee-\JJJ	.
=75	=75	=75
8..a-/L	32r	.
.	32ee-\LLL	.
.	32aa-\	.
.	32ccc\	.
.	32eee-\	.
.	32ccc\	.
.	32aa-\	.
32e-/Jkk	32ee-\JJJ	.
8..f/L	32r	.
.	32cc\LLL	.
.	32ff\	.
.	32aa-\	.
.	32ddd-\	.
.	32aa-\	.
.	32ff\	.
32c/Jkk	32cc\JJJ	.
=76	=76	=76
8..e-\L	32r	.
.	32a-\LLL	.
.	32cc\	.
.	32ee-\	.
.	32aa-\	.
.	32ee-\	.
.	32cc\	.
*clefF4	*	*
32A-\Jkk	32a-\JJJ	.
8..c\L	32r	.
.	32en/LLL	.
.	32b-/	.
.	32cc/	.
.	32ee-/	.
.	32cc/	.
.	32b-/	.
32E-\Jkk	32e/JJJ	.
=77	=77	=77
(4F\	32r	.
.	32c/LLL	.
.	32f/	.
.	32a-/	.
.	32cc/	.
.	32a-/	.
.	32f/	.
.	32c/JJJ	.
8..Gn\L	32r	.
.	32c/LLL	.
.	32f/	.
.	32a-/	.
.	32cc/	.
.	32a-/	.
.	32f/	.
32A-\Jkk	32c/JJJ	.
=78	=78	=78
4c\)	32r	.
.	32c/LLL	.
.	32f/	.
.	32a-/	.
.	32cc/	.
.	32a-/	.
.	32f/	.
.	32c/JJJ	.
([8F\L	32r	.
.	32c/LLL	.
.	32f/	.
.	32a-/	.
32F\LL]	32cc/	.
32Gn\	32a-/	.
32A-\	32f/	.
32B-\JJJ	32c/JJJ	.
=79	=79	=79
8.c-\L)	32r	.
.	32dn/LLL	.
.	32f/	.
.	32a-/	.
.	32ddn/	.
.	32a-/	.
32B-\LL	32f/	.
32A-\JJJ	32d/JJJ	.
[4f\	32r	.
.	32d/LLL	.
.	32a-/	.
.	32bn/	.
.	32dd/	.
.	32b/	.
.	32a-/	.
.	32d/JJJ	.
=80	=80	=80
4f\]	32r	.
.	32dn/LLL	.
.	32a-/	.
.	32bn/	.
.	32ddn/	.
.	32b/	.
.	32a-/	.
.	32d/JJJ	.
4f#\	32r	.
.	32d/LLL	.
.	32an/	.
.	32cc/	.
.	32dd/	.
.	32cc/	.
.	32a/	.
.	32d/JJJ	.
=81	=81	=81
(4Gn\	16r	p
.	32dn/LLL	.
.	32gn/	.
.	32b-/	.
.	32ddn/	.
.	32b-/	.
.	32g/	.
8..An\L	32e-/JJJ	.
.	32d/LLL	.
.	32g/	.
.	32b-/	.
.	32dd/	.
.	32b-/	.
.	32g/	.
32B-\Jkk	32d/JJJ	.
=82	=82	=82
4dn\)	32r	.
.	32dn/LLL	.
.	32gn/	.
.	32b-/	.
.	32ddn/	.
.	32b-/	.
.	32g/	.
.	32d/JJJ	.
([8Gn\L	32r	.
.	32d/LLL	.
.	32g/	.
.	32b-/	.
32G\LL]	32dd/	.
32An\	32b-/	.
32B-\	32g/	.
32c\JJJ	32d/JJJ	.
=83	=83	=83
(8.d-\L)	32r	.
.	32e-/LLL	.
.	32gn/	.
.	32b-/	.
.	32een/	.
.	32b-/	.
32c\LL	32g/	.
32B-\JJJ)	32e-/JJJ	.
[4gn^\	32r	.
.	32e-/LLL	.
.	32b-/	.
.	32cc#/	.
.	32ee/	.
.	32cc#/	.
.	32b-/	.
.	32e-/JJJ	.
=84	=84	=84
4gn\]	32r	.
.	32en/LLL	.
.	32b-/	.
.	32cc#/	.
.	32een/	.
.	32cc#/	.
.	32b-/	.
.	32e/JJJ	.
4g#\	32r	.
.	32e/LLL	.
.	32bn/	.
.	32dd-/	.
.	32ee/	.
.	32dd-/	.
.	32b/	.
.	32e/JJJ	.
=85	=85	=85
(4An\	32r	.
.	32en/LLL	.
.	32an/	.
.	32cc#/	.
.	32een/	.
.	32cc#/	.
.	32a/	.
.	32e/JJJ	.
8..Bn\L	32r	.
.	32e/LLL	.
.	32a/	.
.	32cc#/	.
.	32ee/	.
.	32cc#/	.
.	32a/	.
32c#\Jkk	32e/JJJ	.
=86	=86	=86
4en\)	32r	.
.	32en/LLL	.
.	32an/	.
.	32cc#/	.
.	32een/	.
.	32cc#/	.
.	32a/	.
.	32e/JJJ	.
4An\	32r	.
.	32e/LLL	.
.	32a/	.
.	32cc#/	.
.	32ee/	.
.	32cc#/	.
.	32a/	.
.	32e/JJJ	.
=87	=87	=87
4fn'\	32r	.
.	32fn\LLL	.
.	32a-\	.
.	32dd-\	.
.	32ffn\	.
.	32dd-\	.
.	32a-\	.
.	32f\JJJ	.
4e-'\	32r	.
.	32f\LLL	.
.	32a-\	.
.	32dd-\	.
.	32ff\	.
.	32dd-\	.
.	32a-\	.
.	32f\JJJ	.
=88	=88	=88
4d-'\	32r	.
.	32f\LLL	.
.	32a-\	.
.	32dd-\	.
.	32ff\	.
.	32dd-\	.
.	32a-\	.
.	32f\JJJ	.
(8..c\L	32r	.
.	32f\LLL	.
.	32a-\	.
.	32dd-\	.
.	32ff\	.
.	32dd-\	.
.	32a-\	.
32B-\Jkk	32f\JJJ	.
=89	=89	=89
4AA-\ 4A-\)	32r	f
.	32g-\LLL	.
.	32cc\	.
.	32ee-\	.
.	32aa-\	.
.	32ee-\	.
.	32cc\	.
.	32g-\JJJ	.
4GGn'/ 4Gn'/	32r	.
.	32g-\LLL	.
.	32cc\	.
.	32ee-\	.
.	32aa-\	.
.	32ee-\	.
.	32cc\	.
.	32g-\JJJ	.
=90	=90	=90
4GG-'/ 4G-'/	32r	.
.	32g-\LLL	.
.	32cc\	.
.	32ee-\	.
.	32aa-\	.
.	32ee-\	.
.	32cc\	.
.	32g-\JJJ	.
(8..FF/ 8..F/L	32r	.
.	32g-\LLL	.
.	32cc\	.
.	32ee-\	.
.	32aa-\	.
.	32ee-\	.
.	32cc\	.
32EE-/) 32E-/Jkk	32g-\JJJ	.
=91	=91	=91
24DD-\LL	4b-\ 4dd-\ 4ff\ 4bb-\	ff
24AA-\	.	.
24D-\	.	.
24F\	.	.
24A-\	.	.
24d-\JJ	.	.
4r	8.f\ 8.dd-\ 8.ff\L	.
.	16bb-\Jk	.
=92	=92	=92
24FF\LL	4a-\ 4dd-\ 4aa-\	.
24AA-\	.	.
24D-\	.	.
24F\	.	.
24A-\	.	.
24d-\JJ	.	.
4r	8.d-/ 8.dd-/L	.
.	16e-/ 16ee-/Jk	.
=93	=93	=93
16AAA-/LL	4f\ 4a-\ 4cc\ 4ff\	.
16AA-/	.	.
16A-/	.	.
16Gn/JJ	.	.
16G-\LL	[4a-^\ [4cc^\ [4ff^\ [4aa-^\	.
16F\	.	.
16En\	.	.
16E-\JJ	.	.
=94	=94	=94
16Dn/LL	4a-\] 4cc\] 4ff\] 4aa-\]	.
16D-/	.	.
16C/	.	.
16C-/JJ	.	.
16BB-/LL	4g-\ 4cc\ 4een\	.
16AA-/	.	.
16GGn/	.	.
16AA-/JJ	.	.
=95	=95	=95
(20DD-/LL	4b-\ 4dd-\ 4ff\ 4bb-\	.
20AA-/	.	.
20D-/	.	.
20F/	.	.
20B-/JJ)	.	.
4r	8.F/ 8.d-/ 8.f/L	.
.	16B-/ 16b-/Jk	.
=96	=96	=96
(20FF/LL	4A-/ 4d-/ 4a-/	.
20AA-/	.	.
20D-/	.	.
20F/	.	.
20A-/JJ)	.	.
4r	8.D-/ 8.d-/L	.
.	16E-/ 16e-/Jk	.
=97	=97	=97
(16AAA-/LL	4F/ 4c/ 4f/	.
16AA-/	.	.
16A-/	.	.
16Gn/JJ	.	.
16G-\LL	[4A-^/ [4c^/ [4f^/ [4a-^/	.
16F\	.	.
16E#\	.	.
16E-\JJ	.	.
=98	=98	=98
16Dn/LL	4A-/] 4c/] 4f/] 4a-/]	.
16D-/	.	.
16C/	.	.
16C-/JJ	.	.
16BB-/LL	4G-/ 4c/ 4en/	.
16AA-/	.	.
16GGn/	.	.
16AA-/JJ)	.	.
=99	=99	=99
(24DD-/LL	4F/ 4d-/ 4f/	.
24AA-/	.	.
24D-/	.	.
24F/	.	.
24A-/	.	.
24G-/JJ	.	.
24F/LL	8.d-/L	.
24E-/	.	.
24D-/	.	.
24C/	.	.
24BB-/	.	.
.	16f/Jk	.
24AAn/JJ)	.	.
=100	=100	=100
32AA-\LLL	8c/ 8e-/ 8g/ 8a-/	.
32BB-\	.	.
32C\	.	.
32D-\	.	.
32E-\	8r	.
32F\	.	.
32G-\	.	.
32Gn\JJJ	.	.
4r	32A-/LLL	.
.	32An/	.
.	32B-/	.
.	32B-/	.
.	32c/	.
.	32d-/	.
.	32dn/	.
.	32e-/JJJ	.
=101	=101	=101
(24DD-/LL	4f/	.
24AA-/	.	.
24D-/	.	.
24F/	.	.
24A-/	.	.
24G-/JJ	.	.
24F/LL	8.d-/L	.
24E-/	.	.
24D-/	.	.
24C/	.	.
24BB-/	.	.
.	16f/Jk	.
24AA-/JJ)	.	.
=102	=102	=102
*k[b-e-a-d-g-]	*k[b-e-a-d-g-]	*k[b-e-a-d-g-]
32AA-\LLL	8c/ 8e-/ 8g-/ 8a-/	.
32BB-\	.	.
32C\	.	.
32D-\	.	.
32E-\	8r	.
32F\	.	.
32G-\	.	.
32Gn\JJJ	.	.
4r	32A-/LLL	.
.	32An/	.
.	32B-/	.
.	32Bn/	.
.	32c/	.
.	32d-/	.
.	32dn/	.
.	32e-/JJJ	.
=103	=103	=103
32CC/LLL	8f/	ff
32F/	.	.
32D-/	.	.
32AA-/JJJ	.	.
8r	32F\LLL	.
.	32A-\	.
.	32d-\	.
.	32f\JJJ	.
32A-/LLL	8r	.
32F/	.	.
32D-/	.	.
32AA-/JJJ	.	.
8r	32A-\LLL	.
.	32d-\	.
.	32f\	.
.	32a-\JJJ	.
=104	=104	=104
32d-/LLL	8r	.
32A-/	.	.
32F/	.	.
32D-/JJJ	.	.
8r	32d-\LLL	.
.	32f\	.
.	32a-\	.
.	32dd-\JJJ	.
32f/LLL	8r	.
32d-/	.	.
32A-/	.	.
32F/JJJ	.	.
8r	32f\LLL	.
.	32a-\	.
.	32dd-\	.
.	32ff\JJJ	.
=105	=105	=105
32a-/LLL	8r	.
32f/	.	.
32d-/	.	.
32A-/JJJ	.	.
8r	32a-\LLL	.
.	32dd-\	.
.	32ff\	.
.	32aa-\JJJ	.
*clefG2	*	*
32dd-/LLL	8r	.
32a-/	.	.
32f/	.	.
32d-/JJJ	.	.
8r	32dd-\LLL	.
.	32ff\	.
.	32aa-\	.
.	32ddd-\JJJ	.
=106	=106	=106
32ff/LLL	8r	.
32dd-/	.	.
32a-/	.	.
32f/JJJ	.	.
8r	32ff\LLL	.
.	32aa-\	.
.	32ddd-\	.
.	32fff\JJJ	.
32aa-/LLL	8r	.
32ff/	.	.
32dd-/	.	.
32a-/JJJ	.	.
8r	32a-\LLL	.
.	32dd-\	.
.	32ff\	.
.	32aa-\JJJ	.
=107	=107	=107
4dd-\ 4ff\ 4aa-\	4dd-\ 4ddd-\	fff
4d-'/ 4f'/ 4a-'/	4dd-'\ 4ff'\ 4aa-'\ 4ddd-'\	.
*clefF4	*	*
=108	=108	=108
4A-'\ 4d-'\	4f'/ 4a-'/ 4dd-'/	.
*	*clefF4	*clefF4
4AA-'\ 4D-'\ 4A-'\	4F'\ 4d-'\ 4f'\	.
=109	=109	=109
4DDD-'/ 4DD-'/	4D-'\	.
4r	4r	.
=110	=110	=110
*k[]	*k[]	*k[]
=111	=111	=111
=112	=112	=112
=113	=113	=113
*-	*-	*-
!!!ENC: Craig Stuart Sapp
!!!END: 2004/09/03/
